X:503
T:B503-  When Aurelia First I Courted
S:figuratively Charles II to Barbara Castelmain, in early MS
Q:1/4=120
L:1/4
M:C|
K:Gm
G3/2A/Bc|c3/2d/dd|=e3/2^f/ga|(b/a)g/g2|\
d3/2e/cf|B3/2c/AA|B3/2G/e(d/c/)|c3/2B/B2|\
d3/2d/=ef|f3/2=e/ff|^f3/2f/ga|(b/a)g/^f2|\
":s:"A3/2A/BB|=B3/2B/cd|e3/2d/c(B3/4A/4)|A3/2G/.G2|]

